@extra/phlat-icons/symbolic-22/plank.svg

<svg xmlns="http://www.w3.org/2000/svg" version="1.1" viewBox="-2 -2 22 22"><g fill="#f1f2f2"><path opacity=".6" d="m2.4004 1c-1.3296 0-2.4004 1.102-2.4004 2.4707v9.0583c-2.9606e-16 1.369 1.0708 2.471 2.4004 2.471h11.2c1.329 0 2.4-1.102 2.4-2.471v-9.0583c0-1.3687-1.071-2.4707-2.4-2.4707h-11.2zm0 1h11.2c0.777 0 1.4 0.6236 1.4 1.4707v9.0583c0 0.847-0.623 1.471-1.4 1.471h-11.2c-0.7767 0-1.4-0.624-1.4-1.471v-9.0583c0-0.8471 0.6233-1.4707 1.4004-1.4707z" fill-rule="evenodd" stroke-width=".40584"/><g stroke-linecap="round" stroke-miterlimit="7"><path opacity=".5" style="paint-order:markers fill stroke" d="m3.3571 11c-0.1978 0-0.3571 0.149-0.3571 0.333v1.667h10v-1.667c0-0.184-0.159-0.333-0.357-0.333z" stroke-width=".24601"/><rect style="paint-order:markers fill stroke" ry=".33320" height="2" width="2" y="10" x="4" stroke-width=".33320"/><rect style="paint-order:markers fill stroke" ry=".33325" height="2" width="2" y="10" x="7" stroke-width=".33325"/><rect style="paint-order:markers fill stroke" ry=".33320" height="2" width="2" y="10" x="10" stroke-width=".33320"/></g></g></svg>

<svg xmlns="http://www.w3.org/2000/svg" viewBox="-2 -2 22 22">
    <g fill="#f1f2f2">
        <path opacity=".6" d="M2.4 1C1.07 1 0 2.102 0 3.47v9.059C0 13.898 1.07 15 2.4 15h11.2c1.33 0 2.4-1.102 2.4-2.471V3.471C16 2.102 14.93 1 13.6 1H2.4zm0 1h11.2c.777 0 1.4.624 1.4 1.47v9.059c0 .847-.623 1.471-1.4 1.471H2.4c-.776 0-1.4-.624-1.4-1.471V3.471C1 2.624 1.624 2 2.4 2z" fill-rule="evenodd"/>
        <g stroke-linecap="round" stroke-miterlimit="7">
            <path opacity=".5" d="M3.357 11c-.198 0-.357.149-.357.333V13h10v-1.667c0-.184-.159-.333-.357-.333z" paint-order="markers fill stroke"/>
            <rect ry=".333" height="2" width="2" y="10" x="4" paint-order="markers fill stroke"/>
            <rect ry=".333" height="2" width="2" y="10" x="7" paint-order="markers fill stroke"/>
            <rect ry=".333" height="2" width="2" y="10" x="10" paint-order="markers fill stroke"/>
        </g>
    </g>
</svg>
